teeny/outline/adjust-vertical-alt.svg

<svg width="15" height="15" viewBox="0 0 15 15" fill="none" xmlns="http://www.w3.org/2000/svg">
<path d="M3.5 0L3.5 8.5M3.5 8.5C2.39543 8.5 1.5 9.39543 1.5 10.5C1.5 11.6046 2.39543 12.5 3.5 12.5M3.5 8.5C4.60457 8.5 5.5 9.39543 5.5 10.5C5.5 11.6046 4.60457 12.5 3.5 12.5M3.5 12.5V15M11.5 0L11.5 2.5M11.5 2.5C10.3954 2.5 9.5 3.39543 9.5 4.5C9.5 5.60457 10.3954 6.5 11.5 6.5M11.5 2.5C12.6046 2.5 13.5 3.39543 13.5 4.5C13.5 5.60457 12.6046 6.5 11.5 6.5M11.5 6.5V15" stroke="black"/>
</svg>

<svg viewBox="0 0 15 15" xmlns="http://www.w3.org/2000/svg"><path fill="none" stroke="#000" d="M3.5 0v8.5m0 0c-1.11 0-2 .89-2 2 0 1.1.89 2 2 2m0-4c1.1 0 2 .89 2 2 0 1.1-.9 2-2 2m0 0V15m8-15v2.5m0 0c-1.11 0-2 .89-2 2 0 1.1.89 2 2 2m0-4c1.1 0 2 .89 2 2 0 1.1-.9 2-2 2m0 0V15"/></svg>
